X:480
T:Der Stod en Jungfru
Z:Jack Campin, http://www.campin.me.uk/
F:Jack Campin's Nine-Note Tunebook
% last edit 29-06-2015
C:John Enninger, 1885
M:3/4
L:1/4
Q:3/4=50
K:EMin
D|E2  D|E2  D|G2  F|G2 B/d/|d d   c   |B B/A/ G|A2 G|G2:|
B|B B B|d d B|B>A E|A2 G/A/|B B/A/G/F/|D E    F|G2 F|G3-|G2:|

